emblems/22/emblem-locked.svg

<svg width="22" height="22" version="1.1" xmlns="http://www.w3.org/2000/svg">
  <g transform="matrix(.72727 0 0 .72727 4.2975 4.0552)">
    <rect width="22" height="22" rx="2" style="fill:#f67400"/>
    <path d="m2 0c-1.108 0-2 .892-2 2v18c0 1.108.892 2 2 2h18c1.108 0 2-.892 2-2v-18c0-1.108-.892-2-2-2zm0 1h18c.554 0 1 .446 1 1v18c0 .554-.446 1-1 1h-18c-.554 0-1-.446-1-1v-18c0-.554.446-1 1-1z" style="fill-opacity:.6;fill:#31363b"/>
    <path d="m11 3c-2.216 0-4 1.784-4 4v4h-2v8h12v-8h-2v-4c0-2.216-1.784-4-4-4m0 1c1.662 0 3 1.561 3 3.5v3.5h-6v-3.5c0-1.939 1.338-3.5 3-3.5" fill="#ffffff"/>
  </g>
</svg>

<?xml version="1.0" encoding="UTF-8"?>
<svg height="22" width="22" xmlns="http://www.w3.org/2000/svg">

<rect style="fill:#f67400;fill-opacity:1;stroke:none"  height="22" rx="2" width="22"/>
<path style="fill:#31363b;fill-opacity:0.6;stroke:none"  d="M2 0C.892 0 0 .892 0 2v18c0 1.108.892 2 2 2h18c1.108 0 2-.892 2-2V2c0-1.108-.892-2-2-2zm0 1h18c.554 0 1 .446 1 1v18c0 .554-.446 1-1 1H2c-.554 0-1-.446-1-1V2c0-.554.446-1 1-1z"/>
<path d="M11 3C8.784 3 7 4.784 7 7v4H5v8h12v-8h-2V7c0-2.216-1.784-4-4-4m0 1c1.662 0 3 1.561 3 3.5V11H8V7.5C8 5.561 9.338 4 11 4" fill="#fff"/>
</svg>
